X:1
T:Harewood, 12.12.8.8
T:Harewood, 12.12.8.8
T:Samuel Sebastian Wesley, 1839
T:Public Domain Courtesy of the Cyber Hymnal™
C:Samuel Sebastian Wesley, 1839
Z:Public Domain
Z:Courtesy of the Cyber Hymnal™
%%score ( 1 2 ) ( 3 4 )
L:1/8
Q:1/4=113
M:4/4
K:A
V:1 treble 
V:2 treble 
V:3 bass 
V:4 bass 
V:1
 E2 | [EF]2 [EG]2 [CA]2 [FB]2 | (A2 G2) [Ee]4 | ([Fd][Ec]) ([DB][CA]) [Ec]2 B2 | [CA]6 [EB]2 | %5
 [Ec]2 [Ee]2 [Ec]2 [EB]2 | [DA]4 [^Dc]4 | [EB]2 [FA]2 [EG]2 [^DF]2 | E6 E2 | %9
 [EF]2 [DG]2 [CA]2 [EB]2 | [Ec]2 [Fd]2 [EB]2 [Ge]2 | [Fe]2 d2 [^Ec]2 (BF) | [EA]2 G2 [CA]2 |] %13
V:2
 E2 | x8 | E4 x4 | x6 (ED) | x8 | x8 | x8 | x8 | E6 E2 | x8 | x8 | x2 (GF) x F2 x | x2 (ED) x2 |] %13
V:3
 [A,C]2 | [A,C]2 [G,B,]2 [F,C]2 [B,,D]2 | (C2 B,2) [C,A,]4 | [D,A,]2 [F,A,]2 [E,A,]2 [E,G,]2 | %4
 [A,,A,]6 [E,G,]2 | A,2 [G,B,]2 A,2 [E,G,]2 | [F,A,]4 [F,A,]4 | [G,B,]2 [A,C]2 B,2 [B,,B,]2 | %8
 [E,G,]6 [C,A,]2 | [D,A,]2 [B,,G,]2 F,2 [G,B,]2 | A,2 [D,A,]2 [E,G,]2 [C,G,]2 | %11
 [A,,C]2 [B,,D]2 [C,G,]2 [D,B,]2 | [E,C]2 [E,B,]2 [A,,A,]2 |] %13
V:4
 x2 | x8 | E,4 x4 | x8 | x8 | A,2 A,2 x4 | x8 | x4 B,2 x2 | x8 | x4 F,2 x2 | A,2 x6 | x8 | x6 |] %13

